X:1
T:The Rose Tree
L:1/8
Q:1/4=110
M:2/4
K:D
"D" z4 |"D" z4 |"G" z4 |"A" z4 |
"D" z4 |"D" z4 |"G" z4"A" |"D" z4 ::
"D" D,,3 z |"G" G,,3 z |"Em" E,,3 z |"A" A,,3 z |
"Bm"B,,3 z |"A" A,,3 z |"G" G,,2"A" A,,2 |"D" D,,4 ::
"D" z4 |"D" z4 |"G" z4 |"A" z4 |
"D" z4 |"D" z4 |"G" z4"A" |"D" z4 ::
"D" D,, z z D,, |"G"G,, z z G,, |"Em" E,, z z E,, |"A" A,, z z A,, |
"Bm" B,, z z B,, |"A" A,, z z A,, |"G" G,, z"A" A,, z |"D"D,,4 :|
